X: 255
T: Hine E Hine
C:Maori Lullaby
B: steve song book
B: kameruka choir
M:4/4
Q: 1/4=100
K:G
V:1 
B2BB c2c2|B4c4|d2ed c2c2|B8| B2BB c2c2|B4c4|
d2ed c2c2|B8|d2dd e3e|d8|d2dd e3e|d8|
d2ddB2c^c|d4d4|B2B2c2c2|B8|B2B2c2c2|B8||
V:2 
G2GGF2EF|G4 A4|B2cBA2EF|G8|G2GGF2EF|G4 A4|
B2cBA2EF|G8|B2BBc3c|B8|B2BB c3c|B8|
B2BBG2A^A|B4B4|G2G2F2EF|G8|G2G2F2EF|G8|
W: E tangi a-na koe, hine e hine.
W: E tangi a-na koe, hine e hine.
W: Kati ti ponri ra, noho i te aroha.
W: Te naakau o te matua
W: Hine i hine. Hine e Hine
% abcbook-tune_id 62a1d1ab6a055e15df39bf96


% abcbook-boost 0
% abcbook-tablature 
% abcbook-transpose 
% abcbook-lastupdated 1654773777613
% abcbook-soundfonts 
% abcbook-repeats 1


